exports/government-revenues-national-income-us_v1_850x600.svg

<svg xmlns="http://www.w3.org/2000/svg" version="1.1" style="background-color:#fff;-webkit-font-smoothing:antialiased" width="850" height="600" font-family="'Helvetica Neue',Helvetica,Arial,sans-serif" font-size="18" text-rendering="optimizeLegibility"><g class="ChartTab"><g class="HeaderView"><g opacity=".8" transform="matrix(.31 0 0 .31 770 15)"><a xmlns:xlink="http://www.w3.org/1999/xlink" xlink:href="https://ourworldindata.org" target="_blank"><g><path fill="#1B2543" d="M0 0h211.2v130.1H0z"/><path fill="#E63912" d="M0 112.2h211.2v17.9H0z"/><g><path fill="none" d="M1.2 12.3h210.2v99.2H1.2z"/><path fill="#FFF" d="M37.8 32.2c0 12.7-7.7 19.4-17.1 19.4-9.7 0-16.6-7.5-16.6-18.7 0-11.7 7.3-19.3 17.1-19.3 10.1.1 16.6 7.7 16.6 18.6zm-28.6.6c0 7.9 4.3 14.9 11.8 14.9 7.5 0 11.8-6.9 11.8-15.3 0-7.3-3.8-14.9-11.8-14.9-7.9 0-11.8 7.3-11.8 15.3zM62.7 43.8c0 2.7.1 5.1.2 7.2h-4.3l-.3-4.3h-.1c-1.3 2.1-4 4.9-8.8 4.9-4.2 0-9.1-2.3-9.1-11.6V24.6h4.8v14.6c0 5 1.5 8.4 5.9 8.4 3.2 0 5.5-2.2 6.3-4.4.3-.7.4-1.6.4-2.5V24.6h4.8v19.2zM67.3 32.8c0-3.1-.1-5.8-.2-8.2h4.2l.2 5.2h.2c1.2-3.5 4.1-5.8 7.3-5.8.5 0 .9.1 1.4.2v4.5c-.5-.1-1-.2-1.6-.2-3.4 0-5.8 2.6-6.5 6.2-.1.7-.2 1.4-.2 2.2V51h-4.8V32.8zM95.4 51L86 14.2h5l4.4 18.6c1.1 4.6 2.1 9.2 2.7 12.7h.1c.6-3.7 1.8-8 3-12.8l4.9-18.5h5l4.5 18.7c1 4.4 2 8.7 2.6 12.6h.1c.8-4 1.8-8.1 3-12.7l4.9-18.5h4.9L120.6 51h-5L111 31.9c-1.1-4.7-1.9-8.3-2.4-12h-.1c-.7 3.7-1.5 7.3-2.8 12L100.4 51h-5zM154.9 37.6c0 9.8-6.8 14-13.2 14-7.2 0-12.7-5.2-12.7-13.6 0-8.8 5.8-14 13.1-14 7.7 0 12.8 5.5 12.8 13.6zm-21 .3c0 5.8 3.3 10.1 8 10.1 4.6 0 8-4.3 8-10.3 0-4.5-2.2-10.1-7.9-10.1s-8.1 5.2-8.1 10.3zM158.2 32.8c0-3.1-.1-5.8-.2-8.2h4.2l.2 5.2h.2c1.2-3.5 4.1-5.8 7.3-5.8.5 0 .9.1 1.4.2v4.5c-.5-.1-1-.2-1.6-.2-3.4 0-5.8 2.6-6.5 6.2-.1.7-.2 1.4-.2 2.2V51h-4.8V32.8zM173.5 12.3h4.8V51h-4.8V12.3zM206.5 12.3v31.9c0 2.3.1 5 .2 6.8h-4.3l-.2-4.6h-.2c-1.5 2.9-4.7 5.2-9 5.2-6.4 0-11.3-5.4-11.3-13.4-.1-8.8 5.4-14.2 11.9-14.2 4 0 6.8 1.9 8 4h.1V12.3h4.8zm-4.8 23.1c0-.6-.1-1.4-.2-2a7 7 0 00-6.9-5.6c-5 0-7.9 4.4-7.9 10.2 0 5.3 2.6 9.8 7.8 9.8 3.2 0 6.2-2.1 7.1-5.7.2-.7.2-1.3.2-2.1v-4.6zM42.8 64c.1 1.6-1.1 2.9-3.1 2.9-1.7 0-2.9-1.3-2.9-2.9 0-1.7 1.3-3 3-3 1.9 0 3 1.3 3 3zm-5.4 33.8V71.4h4.8v26.4h-4.8zM47.5 78.6c0-2.7-.1-5-.2-7.1h4.3l.3 4.4h.1c1.3-2.5 4.4-5 8.8-5 3.7 0 9.4 2.2 9.4 11.2v15.8h-4.8V82.6c0-4.3-1.6-7.8-6.1-7.8-3.2 0-5.6 2.2-6.5 4.9-.2.6-.3 1.4-.3 2.2v15.9h-4.8V78.6zM84 61.6c2.9-.4 6.3-.8 10.1-.8 6.8 0 11.7 1.6 14.9 4.6 3.3 3 5.2 7.3 5.2 13.2 0 6-1.9 10.9-5.3 14.3-3.4 3.4-9.1 5.3-16.3 5.3-3.4 0-6.2-.2-8.6-.4V61.6zm4.8 32.5c1.2.2 3 .3 4.8.3 10.2 0 15.7-5.7 15.7-15.6.1-8.7-4.9-14.2-14.9-14.2-2.5 0-4.3.2-5.6.5v29zM132.1 97.8l-.4-3.3h-.2a9.79 9.79 0 01-8.1 3.9c-5.4 0-8.1-3.8-8.1-7.6 0-6.4 5.7-9.9 15.9-9.8v-.5c0-2.2-.6-6.1-6-6.1-2.5 0-5 .8-6.9 2l-1.1-3.2c2.2-1.4 5.4-2.3 8.7-2.3 8.1 0 10.1 5.5 10.1 10.8v9.9c0 2.3.1 4.5.4 6.3h-4.3zm-.7-13.4c-5.3-.1-11.2.8-11.2 5.9 0 3.1 2.1 4.6 4.5 4.6 3.4 0 5.6-2.2 6.4-4.4.2-.5.3-1 .3-1.5v-4.6zM146.6 63.9v7.6h6.9v3.7h-6.9v14.2c0 3.3.9 5.1 3.6 5.1 1.3 0 2.2-.2 2.8-.3l.2 3.6c-.9.4-2.4.7-4.3.7-2.2 0-4-.7-5.2-2-1.4-1.4-1.9-3.8-1.9-6.9V75.1h-4.1v-3.7h4.1v-6.3l4.8-1.2zM171.4 97.8l-.4-3.3h-.2a9.79 9.79 0 01-8.1 3.9c-5.4 0-8.1-3.8-8.1-7.6 0-6.4 5.7-9.9 15.9-9.8v-.5c0-2.2-.6-6.1-6-6.1-2.5 0-5 .8-6.9 2l-1.1-3.2c2.2-1.4 5.4-2.3 8.7-2.3 8.1 0 10.1 5.5 10.1 10.8v9.9c0 2.3.1 4.5.4 6.3h-4.3zm-.7-13.4c-5.3-.1-11.2.8-11.2 5.9 0 3.1 2.1 4.6 4.5 4.6 3.4 0 5.6-2.2 6.4-4.4.2-.5.3-1 .3-1.5v-4.6z"/></g></g></a></g><a href="https://ourworldindata.org/grapher/government-revenues-national-income" target="_blank"><text font-size="27" x="15" y="36.6" fill="#555"><tspan x="15" y="36.6">Government Revenues (% national income), United States</tspan></text></a><text font-size="14.4" x="15" y="55.5" fill="#666"><tspan x="15" y="55.52">Government revenues by level of government, as share of Gross National Product</tspan></text></g><g class="StackedArea"><defs><clipPath id="a"><path d="M52.56 0h820v956.2h-820z"/></clipPath></defs><g class="AxisBoxView"><g class="HorizontalAxis" fill="#666" text-anchor="middle" font-size="16.2"><text x="52.6" y="556.5">1902</text><text x="178.2" y="556.5">1920</text><text x="317.8" y="556.5">1940</text><text x="457.4" y="556.5">1960</text><text x="597" y="556.5">1980</text><text x="680.8" y="556.5">1992</text></g><g class="VerticalAxis" fill="#666" dominant-baseline="middle" text-anchor="end" font-size="16.2"><text x="47.56" y="535.3">0%</text><text x="47.56" y="474.2">5%</text><text x="47.56" y="413.1">10%</text><text x="47.56" y="352.1">15%</text><text x="47.56" y="291">20%</text><text x="47.56" y="229.9">25%</text><text x="47.56" y="168.8">30%</text><text x="47.56" y="107.7">35%</text></g><g class="AxisGridLines"><path stroke="#ccc" d="M52.56 535.3h628.23"/><path stroke="#ddd" stroke-dasharray="3,2" d="M52.56 474.2h628.23M52.56 413.1h628.23M52.56 352.1h628.23M52.56 291h628.23M52.56 229.9h628.23M52.56 168.8h628.23M52.56 107.7h628.23"/></g><g class="AxisGridLines" stroke="#ddd" stroke-dasharray="3,2"><path d="M178.2 535.3V78.4M317.8 535.3V78.4M457.4 535.3V78.4M597 535.3V78.4"/></g></g><g clip-path="url(#a)"><g class="HeightedLegend clickable"><g class="legendMark"><path fill="#ffd53e" d="M685.79 204.25h10v2.5h-10z"/><text font-size="14.4" x="700.8" y="202.1" fill="#333"><tspan x="700.79" y="202.07">National Gov</tspan><tspan x="700.79" y="217.91">Revenues</tspan></text></g><g class="legendMark"><path fill="#34983f" d="M685.79 375.85h10v2.5h-10z"/><text font-size="14.4" x="700.8" y="381.4" fill="#333"><tspan x="700.79" y="381.42">Local Gov Revenues</tspan></text></g><g class="legendMark"><path fill="#3360a9" d="M685.79 477.25h10v2.5h-10z"/><text font-size="14.4" x="700.8" y="482.8" fill="#333"><tspan x="700.79" y="482.82">State Gov Revenues</tspan></text></g></g><g class="Areas"><path d="M52.6 525.5l76.7-1.2 62.9-9.8 34.9-4.9 48.8-20.7 41.9-14.7 41.9 15.9 41.9-4.9 34.9-6.1 34.9-7.3 34.9-6.1 34.9-14.7 34.9-8.5 34.9-7.4 34.9-11 34.9-2.4v113.6H52.55" fill="#3360a9" fill-opacity=".7" class="United-States_2-area"/><path d="M52.6 476.7l76.7-3.7 62.9-22 34.9-14.7 48.8-40.3 41.9 7.4 41.9 42.7 41.9-9.8 34.9-14.6 34.9-17.1 34.9-4.9 34.9-24.4 34.9-6.1 34.9-9.8 34.9-19.6 34.9-7.3v89.2l-34.9 2.4-34.9 11-34.9 7.4-34.9 8.5-34.9 14.7-34.9 6.1-34.9 7.3-34.9 6.1-41.9 4.9-41.9-15.9-41.9 14.7-48.8 20.7-34.9 4.9-62.9 9.8-76.7 1.2" fill="#34983f" fill-opacity=".7" class="United-States_1-area"/><path d="M52.6 440l76.7 3.7 62.9-63.6 34.9-1.2 48.8-56.2 41.9-4.9 41.9-144.1 41.9 13.4 34.9-1.2 34.9-7.3 34.9-19.6 34.9-8.5 34.9-15.9L611 95.5l34.9-12.2 34.9-4.9v254.1l-34.9 7.3-34.9 19.6-34.9 9.8-34.9 6.1-34.9 24.4-34.9 4.9-34.9 17.1-34.9 14.6-41.9 9.8-41.9-42.7-41.9-7.4-48.8 40.3-34.9 14.7-62.9 22-76.7 3.7" fill="#ffd53e" fill-opacity=".7" class="United-States_0-area"/><path stroke-linecap="round" d="M52.6 525.5l76.7-1.2 62.9-9.8 34.9-4.9 48.8-20.7 41.9-14.7 41.9 15.9 41.9-4.9 34.9-6.1 34.9-7.3 34.9-6.1 34.9-14.7 34.9-8.5 34.9-7.4 34.9-11 34.9-2.4" stroke="#2B508D" stroke-opacity=".7" stroke-width=".5" fill="none" class="United-States_2-border"/><path stroke-linecap="round" d="M52.6 476.7l76.7-3.7 62.9-22 34.9-14.7 48.8-40.3 41.9 7.4 41.9 42.7 41.9-9.8 34.9-14.6 34.9-17.1 34.9-4.9 34.9-24.4 34.9-6.1 34.9-9.8 34.9-19.6 34.9-7.3" stroke="#2C7F35" stroke-opacity=".7" stroke-width=".5" fill="none" class="United-States_1-border"/><path stroke-linecap="round" d="M52.6 440l76.7 3.7 62.9-63.6 34.9-1.2 48.8-56.2 41.9-4.9 41.9-144.1 41.9 13.4 34.9-1.2 34.9-7.3 34.9-19.6 34.9-8.5 34.9-15.9L611 95.5l34.9-12.2 34.9-4.9" stroke="#D5B234" stroke-opacity=".7" stroke-width=".5" fill="none" class="United-States_0-border"/></g></g></g><g class="SourcesFooter" fill="#777"><g class="clickable" fill="#777"><text font-size="12.6" x="15" y="581.6"><tspan x="15" y="581.58">Source: Wallis (2000)</tspan></text></g><text font-size="12.6" x="597.6" y="581.6"><tspan x="597.62" y="581.58"><a target="_blank" href="https://ourworldindata.org/taxation/" fill="#777">OurWorldInData.org/taxation/</a> • <a href="http://creativecommons.org/licenses/by-sa/4.0/deed.en_US" target="_blank" fill="#777">CC BY-SA</a></tspan></text></g></g></svg>

<svg xmlns="http://www.w3.org/2000/svg" version="1.1" style="font-family: 'Helvetica Neue', Helvetica, Arial, sans-serif; font-size: 18px; background-color: white; text-rendering: optimizeLegibility; -webkit-font-smoothing: antialiased;" width="850" height="600"><g class="ChartTab"><g class="HeaderView"><g opacity="0.8" transform="translate(770, 15) scale(0.31)"><a xmlns:xlink="http://www.w3.org/1999/xlink" xlink:href="https://ourworldindata.org" target="_blank"><g><rect x="0" y="0" fill="#1B2543" width="211.2" height="130.1"/><rect x="0" y="112.2" fill="#E63912" width="211.2" height="17.9"/><g><rect x="1.2" y="12.3" fill="none" width="210.2" height="99.2"/><path fill="#FFFFFF" d="M37.8,32.2c0,12.7-7.7,19.4-17.1,19.4c-9.7,0-16.6-7.5-16.6-18.7c0-11.7,7.3-19.3,17.1-19.3 C31.3,13.7,37.8,21.3,37.8,32.2z M9.2,32.8c0,7.9,4.3,14.9,11.8,14.9c7.5,0,11.8-6.9,11.8-15.3c0-7.3-3.8-14.9-11.8-14.9 C13.1,17.5,9.2,24.8,9.2,32.8z"/><path fill="#FFFFFF" d="M62.7,43.8c0,2.7,0.1,5.1,0.2,7.2h-4.3l-0.3-4.3h-0.1c-1.3,2.1-4,4.9-8.8,4.9c-4.2,0-9.1-2.3-9.1-11.6 V24.6h4.8v14.6c0,5,1.5,8.4,5.9,8.4c3.2,0,5.5-2.2,6.3-4.4c0.3-0.7,0.4-1.6,0.4-2.5V24.6h4.8V43.8z"/><path fill="#FFFFFF" d="M67.3,32.8c0-3.1-0.1-5.8-0.2-8.2h4.2l0.2,5.2h0.2c1.2-3.5,4.1-5.8,7.3-5.8c0.5,0,0.9,0.1,1.4,0.2v4.5 c-0.5-0.1-1-0.2-1.6-0.2c-3.4,0-5.8,2.6-6.5,6.2c-0.1,0.7-0.2,1.4-0.2,2.2V51h-4.8V32.8z"/><path fill="#FFFFFF" d="M95.4,51l-9.4-36.8h5l4.4,18.6c1.1,4.6,2.1,9.2,2.7,12.7h0.1c0.6-3.7,1.8-8,3-12.8l4.9-18.5h5l4.5,18.7 c1,4.4,2,8.7,2.6,12.6h0.1c0.8-4,1.8-8.1,3-12.7l4.9-18.5h4.9L120.6,51h-5L111,31.9c-1.1-4.7-1.9-8.3-2.4-12h-0.1 c-0.7,3.7-1.5,7.3-2.8,12L100.4,51H95.4z"/><path fill="#FFFFFF" d="M154.9,37.6c0,9.8-6.8,14-13.2,14c-7.2,0-12.7-5.2-12.7-13.6c0-8.8,5.8-14,13.1-14 C149.8,24,154.9,29.5,154.9,37.6z M133.9,37.9c0,5.8,3.3,10.1,8,10.1c4.6,0,8-4.3,8-10.3c0-4.5-2.2-10.1-7.9-10.1 C136.3,27.6,133.9,32.8,133.9,37.9z"/><path fill="#FFFFFF" d="M158.2,32.8c0-3.1-0.1-5.8-0.2-8.2h4.2l0.2,5.2h0.2c1.2-3.5,4.1-5.8,7.3-5.8c0.5,0,0.9,0.1,1.4,0.2v4.5 c-0.5-0.1-1-0.2-1.6-0.2c-3.4,0-5.8,2.6-6.5,6.2c-0.1,0.7-0.2,1.4-0.2,2.2V51h-4.8V32.8z"/><path fill="#FFFFFF" d="M173.5,12.3h4.8V51h-4.8V12.3z"/><path fill="#FFFFFF" d="M206.5,12.3v31.9c0,2.3,0.1,5,0.2,6.8h-4.3l-0.2-4.6H202c-1.5,2.9-4.7,5.2-9,5.2 c-6.4,0-11.3-5.4-11.3-13.4c-0.1-8.8,5.4-14.2,11.9-14.2c4,0,6.8,1.9,8,4h0.1V12.3H206.5z M201.7,35.4c0-0.6-0.1-1.4-0.2-2 c-0.7-3.1-3.3-5.6-6.9-5.6c-5,0-7.9,4.4-7.9,10.2c0,5.3,2.6,9.8,7.8,9.8c3.2,0,6.2-2.1,7.1-5.7c0.2-0.7,0.2-1.3,0.2-2.1V35.4z"/><path fill="#FFFFFF" d="M42.8,64c0.1,1.6-1.1,2.9-3.1,2.9c-1.7,0-2.9-1.3-2.9-2.9c0-1.7,1.3-3,3-3C41.7,61,42.8,62.3,42.8,64z M37.4,97.8V71.4h4.8v26.4H37.4z"/><path fill="#FFFFFF" d="M47.5,78.6c0-2.7-0.1-5-0.2-7.1h4.3l0.3,4.4h0.1c1.3-2.5,4.4-5,8.8-5c3.7,0,9.4,2.2,9.4,11.2v15.8h-4.8 V82.6c0-4.3-1.6-7.8-6.1-7.8c-3.2,0-5.6,2.2-6.5,4.9c-0.2,0.6-0.3,1.4-0.3,2.2v15.9h-4.8V78.6z"/><path fill="#FFFFFF" d="M84,61.6c2.9-0.4,6.3-0.8,10.1-0.8c6.8,0,11.7,1.6,14.9,4.6c3.3,3,5.2,7.3,5.2,13.2c0,6-1.9,10.9-5.3,14.3 c-3.4,3.4-9.1,5.3-16.3,5.3c-3.4,0-6.2-0.2-8.6-0.4V61.6z M88.8,94.1c1.2,0.2,3,0.3,4.8,0.3c10.2,0,15.7-5.7,15.7-15.6 c0.1-8.7-4.9-14.2-14.9-14.2c-2.5,0-4.3,0.2-5.6,0.5V94.1z"/><path fill="#FFFFFF" d="M132.1,97.8l-0.4-3.3h-0.2c-1.5,2.1-4.3,3.9-8.1,3.9c-5.4,0-8.1-3.8-8.1-7.6c0-6.4,5.7-9.9,15.9-9.8v-0.5 c0-2.2-0.6-6.1-6-6.1c-2.5,0-5,0.8-6.9,2l-1.1-3.2c2.2-1.4,5.4-2.3,8.7-2.3c8.1,0,10.1,5.5,10.1,10.8v9.9c0,2.3,0.1,4.5,0.4,6.3 H132.1z M131.4,84.4c-5.3-0.1-11.2,0.8-11.2,5.9c0,3.1,2.1,4.6,4.5,4.6c3.4,0,5.6-2.2,6.4-4.4c0.2-0.5,0.3-1,0.3-1.5V84.4z"/><path fill="#FFFFFF" d="M146.6,63.9v7.6h6.9v3.7h-6.9v14.2c0,3.3,0.9,5.1,3.6,5.1c1.3,0,2.2-0.2,2.8-0.3l0.2,3.6 c-0.9,0.4-2.4,0.7-4.3,0.7c-2.2,0-4-0.7-5.2-2c-1.4-1.4-1.9-3.8-1.9-6.9V75.1h-4.1v-3.7h4.1v-6.3L146.6,63.9z"/><path fill="#FFFFFF" d="M171.4,97.8l-0.4-3.3h-0.2c-1.5,2.1-4.3,3.9-8.1,3.9c-5.4,0-8.1-3.8-8.1-7.6c0-6.4,5.7-9.9,15.9-9.8v-0.5 c0-2.2-0.6-6.1-6-6.1c-2.5,0-5,0.8-6.9,2l-1.1-3.2c2.2-1.4,5.4-2.3,8.7-2.3c8.1,0,10.1,5.5,10.1,10.8v9.9c0,2.3,0.1,4.5,0.4,6.3 H171.4z M170.7,84.4c-5.3-0.1-11.2,0.8-11.2,5.9c0,3.1,2.1,4.6,4.5,4.6c3.4,0,5.6-2.2,6.4-4.4c0.2-0.5,0.3-1,0.3-1.5V84.4z"/></g></g></a></g><a href="https://ourworldindata.org/grapher/government-revenues-national-income" target="_blank"><text font-size="27.00" x="15.0" y="36.6" fill="#555"><tspan x="15" y="36.6">Government Revenues  (% national income), United States</tspan></text></a><text font-size="14.40" x="15.0" y="55.5" fill="#666"><tspan x="15" y="55.519999999999996"> Government revenues by level of government, as share of Gross National Product</tspan></text></g><g class="StackedArea"><defs><clipPath id="boundsClip-482"><rect x="52.562" y="0" width="820" height="956.2"></rect></clipPath></defs><g class="AxisBoxView"><g class="HorizontalAxis"><text x="52.6" y="556.5" fill="#666" text-anchor="middle" font-size="16.2">1902</text><text x="178.2" y="556.5" fill="#666" text-anchor="middle" font-size="16.2">1920</text><text x="317.8" y="556.5" fill="#666" text-anchor="middle" font-size="16.2">1940</text><text x="457.4" y="556.5" fill="#666" text-anchor="middle" font-size="16.2">1960</text><text x="597" y="556.5" fill="#666" text-anchor="middle" font-size="16.2">1980</text><text x="680.8" y="556.5" fill="#666" text-anchor="middle" font-size="16.2">1992</text></g><g class="VerticalAxis"><text x="47.56" y="535.3" fill="#666" dominant-baseline="middle" text-anchor="end" font-size="16.2">0%</text><text x="47.56" y="474.2" fill="#666" dominant-baseline="middle" text-anchor="end" font-size="16.2">5%</text><text x="47.56" y="413.1" fill="#666" dominant-baseline="middle" text-anchor="end" font-size="16.2">10%</text><text x="47.56" y="352.1" fill="#666" dominant-baseline="middle" text-anchor="end" font-size="16.2">15%</text><text x="47.56" y="291" fill="#666" dominant-baseline="middle" text-anchor="end" font-size="16.2">20%</text><text x="47.56" y="229.9" fill="#666" dominant-baseline="middle" text-anchor="end" font-size="16.2">25%</text><text x="47.56" y="168.8" fill="#666" dominant-baseline="middle" text-anchor="end" font-size="16.2">30%</text><text x="47.56" y="107.7" fill="#666" dominant-baseline="middle" text-anchor="end" font-size="16.2">35%</text></g><g class="AxisGridLines"><line x1="52.56" y1="535.3" x2="680.79" y2="535.3" stroke="#ccc"></line><line x1="52.56" y1="474.2" x2="680.79" y2="474.2" stroke="#ddd" stroke-dasharray="3,2"></line><line x1="52.56" y1="413.1" x2="680.79" y2="413.1" stroke="#ddd" stroke-dasharray="3,2"></line><line x1="52.56" y1="352.1" x2="680.79" y2="352.1" stroke="#ddd" stroke-dasharray="3,2"></line><line x1="52.56" y1="291" x2="680.79" y2="291" stroke="#ddd" stroke-dasharray="3,2"></line><line x1="52.56" y1="229.9" x2="680.79" y2="229.9" stroke="#ddd" stroke-dasharray="3,2"></line><line x1="52.56" y1="168.8" x2="680.79" y2="168.8" stroke="#ddd" stroke-dasharray="3,2"></line><line x1="52.56" y1="107.7" x2="680.79" y2="107.7" stroke="#ddd" stroke-dasharray="3,2"></line></g><g class="AxisGridLines"><line x1="178.2" y1="535.30" x2="178.2" y2="78.40" stroke="#ddd" stroke-dasharray="3,2"></line><line x1="317.8" y1="535.30" x2="317.8" y2="78.40" stroke="#ddd" stroke-dasharray="3,2"></line><line x1="457.4" y1="535.30" x2="457.4" y2="78.40" stroke="#ddd" stroke-dasharray="3,2"></line><line x1="597" y1="535.30" x2="597" y2="78.40" stroke="#ddd" stroke-dasharray="3,2"></line></g></g><g clip-path="url(#boundsClip-482)"><g class="HeightedLegend clickable"><g class="legendMark"><rect x="685.7919999999999" y="190.55" width="98.52000000000001" height="29.900000000000002" fill="#fff" opacity="0"></rect><rect x="685.7919999999999" y="204.25" width="10" height="2.5" fill="#ffd53e"></rect><text font-size="14.40" x="700.8" y="202.1" fill="#333"><tspan x="700.7919999999999" y="202.07000000000002">National Gov</tspan><tspan x="700.7919999999999" y="217.91000000000003">Revenues</tspan></text></g><g class="legendMark"><rect x="685.7919999999999" y="369.90000000000003" width="149.20800000000003" height="14.4" fill="#fff" opacity="0"></rect><rect x="685.7919999999999" y="375.85" width="10" height="2.5" fill="#34983f"></rect><text font-size="14.40" x="700.8" y="381.4" fill="#333"><tspan x="700.7919999999999" y="381.42">Local Gov Revenues</tspan></text></g><g class="legendMark"><rect x="685.7919999999999" y="471.3" width="148.48800000000003" height="14.4" fill="#fff" opacity="0"></rect><rect x="685.7919999999999" y="477.25" width="10" height="2.5" fill="#3360a9"></rect><text font-size="14.40" x="700.8" y="482.8" fill="#333"><tspan x="700.7919999999999" y="482.82">State Gov Revenues</tspan></text></g></g><g class="Areas"><rect x="52.562" y="78.4" width="628.2299999999999" height="456.9000000000001" opacity="0" fill="rgba(255,255,255,0)"></rect><path stroke-linecap="round" d="M52.6 525.5L129.3 524.3L192.2 514.5L227.1 509.6L275.9 488.9L317.8 474.2L359.7 490.1L401.6 485.2L436.5 479.1L471.4 471.8L506.3 465.7L541.2 451L576.1 442.5L611 435.1L645.9 424.1L680.8 421.7L680.7919999999999 535.3000000000001L52.562 535.3000000000001" fill="#3360a9" fill-opacity="0.7" class="United-States_2-area"></path><path stroke-linecap="round" d="M52.6 476.7L129.3 473L192.2 451L227.1 436.3L275.9 396L317.8 403.4L359.7 446.1L401.6 436.3L436.5 421.7L471.4 404.6L506.3 399.7L541.2 375.3L576.1 369.2L611 359.4L645.9 339.8L680.8 332.5L680.8 421.7L645.9 424.1L611 435.1L576.1 442.5L541.2 451L506.3 465.7L471.4 471.8L436.5 479.1L401.6 485.2L359.7 490.1L317.8 474.2L275.9 488.9L227.1 509.6L192.2 514.5L129.3 524.3L52.6 525.5" fill="#34983f" fill-opacity="0.7" class="United-States_1-area"></path><path stroke-linecap="round" d="M52.6 440L129.3 443.7L192.2 380.1L227.1 378.9L275.9 322.7L317.8 317.8L359.7 173.7L401.6 187.1L436.5 185.9L471.4 178.6L506.3 159L541.2 150.5L576.1 134.6L611 95.5L645.9 83.3L680.8 78.4L680.8 332.5L645.9 339.8L611 359.4L576.1 369.2L541.2 375.3L506.3 399.7L471.4 404.6L436.5 421.7L401.6 436.3L359.7 446.1L317.8 403.4L275.9 396L227.1 436.3L192.2 451L129.3 473L52.6 476.7" fill="#ffd53e" fill-opacity="0.7" class="United-States_0-area"></path><path stroke-linecap="round" d="M52.6 525.5L129.3 524.3L192.2 514.5L227.1 509.6L275.9 488.9L317.8 474.2L359.7 490.1L401.6 485.2L436.5 479.1L471.4 471.8L506.3 465.7L541.2 451L576.1 442.5L611 435.1L645.9 424.1L680.8 421.7" stroke="rgb(43, 80, 141)" stroke-opacity="0.7" stroke-width="0.5" fill="none" class="United-States_2-border"></path><path stroke-linecap="round" d="M52.6 476.7L129.3 473L192.2 451L227.1 436.3L275.9 396L317.8 403.4L359.7 446.1L401.6 436.3L436.5 421.7L471.4 404.6L506.3 399.7L541.2 375.3L576.1 369.2L611 359.4L645.9 339.8L680.8 332.5" stroke="rgb(44, 127, 53)" stroke-opacity="0.7" stroke-width="0.5" fill="none" class="United-States_1-border"></path><path stroke-linecap="round" d="M52.6 440L129.3 443.7L192.2 380.1L227.1 378.9L275.9 322.7L317.8 317.8L359.7 173.7L401.6 187.1L436.5 185.9L471.4 178.6L506.3 159L541.2 150.5L576.1 134.6L611 95.5L645.9 83.3L680.8 78.4" stroke="rgb(213, 178, 52)" stroke-opacity="0.7" stroke-width="0.5" fill="none" class="United-States_0-border"></path></g></g></g><g style="fill: #777;" class="SourcesFooter"><g style="fill: #777;" class="clickable"><text font-size="12.60" x="15.0" y="581.6"><tspan x="15" y="581.58">Source: Wallis (2000)</tspan></text></g><text font-size="12.60" x="597.6" y="581.6"><tspan x="597.616" y="581.58"><a target='_blank' style='fill: #777;' href='https://ourworldindata.org/taxation/'>OurWorldInData.org/taxation/</a> • <a style="fill: #777;" href="http://creativecommons.org/licenses/by-sa/4.0/deed.en_US" target="_blank">CC BY-SA</a></tspan></text></g></g></svg>
